X:1
T:Pr\"aludium
T:Pr\"aludium
T:(Prelude) BWV 855b
T:Johann Sebastian Bach
C:Johann Sebastian Bach
%%score 1 2
L:1/8
M:4/4
K:Emin
V:1 treble 
V:2 bass 
V:1
 [GBe]4 z4 z8 [Beg]4 z4 z8 | [Acf]4 z4 z8 [Acf]4 z4 z8 | [Bf]4 z4 z8 [Bfa]4 z4 z8 | %3
 [Beg]4 z4 z8 [Beg]4 z4 z8 | [Acf]4 z4 z8 [Bfb]4 z4 z8 | [GBe]4 z4 z8 [Aea]4 z4 z8 | %6
 [FAd]4 z4 z8 [Gdg]4 z4 z8 | [EGc]4 z4 z8 [FAc]4 z4 z8 | [DFAc]4 z4 z8 [DGB]4 z4 z8 | %9
 [EAe]4 z4 z8 [Acf]4 z4 z8 | [GBeg]4 z4 z8 [GB]4 z4 z8 | [=FAc]4 z4 z8 [FBd]4 z4 z8 | %12
 [Gce]4 z4 z8 [EG]4 z4 z8 | [DFA]4 z4 z8 [D^GB]4 z4 z8 | [EAc]4 z4 z8 [EAc]4 z4 z8 | %15
 [^DAc]4 z4 z8 [EAc]4 z4 z8 | [FAc]4 z4 z8 [FAB]4 z4 z8 | [E^GBe]4 z4 z8 [E=G^Ae]4 z4 z8 | %18
 [FA^d]4 z4 z8 [GBe]4 z4 z8 | [G^ce]4 z4 z8 [FB^d]4 z4 z8 | [GBe]4 z4 z8 [E^GBd]4 z4 z8 | %21
 [EAc]4 z4 z8 ^D2 A,2 B,2 C2 B,2 C2 B,2 A,2 | !fermata![^G,B,E]32 |] %23
V:2
 E,2 G,2 A,2 B,2 A,2 B,2 A,2 G,2 E,2 G,2 A,2 B,2 A,2 B,2 A,2 G,2 | %1
 E,2 A,2 B,2 C2 B,2 C2 B,2 A,2 E,2 A,2 B,2 C2 B,2 C2 B,2 A,2 | %2
 ^D,2 F,2 G,2 A,2 G,2 A,2 G,2 F,2 D,2 F,2 G,2 A,2 G,2 A,2 G,2 F,2 | %3
 E,2 G,2 A,2 B,2 A,2 B,2 A,2 G,2 E,2 G,2 A,2 B,2 A,2 B,2 A,2 G,2 | %4
 E,2 F,2 G,2 A,2 G,2 A,2 G,2 F,2 D,2 F,2 G,2 A,2 G,2 A,2 G,2 F,2 | %5
 D,2 E,2 F,2 G,2 F,2 G,2 F,2 E,2 C,2 E,2 F,2 G,2 F,2 G,2 F,2 E,2 | %6
 C,2 F,2 G,2 A,2 G,2 A,2 G,2 F,2 B,,2 G,2 A,2 B,2 A,2 B,2 A,2 G,2 | %7
 B,,2 E,2 F,2 G,2 F,2 G,2 F,2 E,2 A,,2 F,2 G,2 A,2 G,2 A,2 G,2 F,2 | %8
 G,2 A,2 B,2 C2 B,2 C2 B,2 A,2 G,2 B,2 C2 D2 C2 D2 C2 B,2 | %9
 G,2 ^C2 D2 E2 D2 E2 D2 C2 F,2 ^D2 E2 F2 E2 F2 E2 D2 | %10
 E,2 F,2 G,2 A,2 G,2 A,2 G,2 F,2 E,2 G,2 A,2 B,2 A,2 B,2 A,2 G,2 | %11
 E,2 A,2 B,2 C2 B,2 C2 B,2 A,2 D,2 B,2 C2 D2 C2 D2 C2 B,2 | %12
 C,2 D,2 E,2 =F,2 E,2 F,2 E,2 D,2 C,2 E,2 ^F,2 G,2 F,2 G,2 F,2 E,2 | %13
 C,2 F,2 G,2 A,2 G,2 A,2 G,2 F,2 B,,2 ^G,2 A,2 B,2 A,2 B,2 A,2 G,2 | %14
 A,2 B,2 C2 D2 C2 D2 C2 B,2 =G,2 A,2 B,2 C2 B,2 C2 B,2 A,2 | %15
 F,2 A,2 B,2 C2 B,2 C2 B,2 A,2 E,2 A,2 B,2 C2 B,2 C2 B,2 A,2 | %16
 ^D,2 A,2 B,2 C2 B,2 C2 B,2 A,2 D,2 F,2 G,2 A,2 G,2 A,2 G,2 F,2 | %17
 D,2 G,2 A,2 B,2 A,2 B,2 A,2 G,2 ^C,2 E,2 F,2 =G,2 F,2 G,2 F,2 E,2 | %18
 C,2 F,2 G,2 A,2 G,2 A,2 G,2 F,2 B,,2 E,2 F,2 G,2 F,2 G,2 F,2 E,2 | %19
 ^A,,2 E,2 F,2 G,2 F,2 G,2 F,2 E,2 B,,2 F,2 G,2 =A,2 G,2 A,2 G,2 F,2 | %20
 E,2 F,2 G,2 A,2 G,2 A,2 G,2 F,2 E,2 ^G,2 A,2 B,2 A,2 B,2 A,2 G,2 | %21
 E,2 A,2 B,2 C2 B,2 C2 B,2 A,2 [E,F,]4 z4 z8 | !fermata![E,,E,]32 |] %23

